# Welcome to Sonic Pi v2.5

loop do
  sample :perc_bell, rate: (rrand 0.125, 1.5)
  sleep rrand(0.2, 2)
end
use_synth :tb303

loop do
  play 50, release: 0.1, cutoff: rrand(60, 120)
  sleep 0.125
end
Jasmine