
use_random_seed 142857
3.times do
  play rrand(50, 100)
  sleep 0.5
end
loop do
  play 50, amp: 0.3, release: 2
  play 53, amp: 0.3, release: 2 if one_in(2)
  play 57, amp: 0.3, release: 2 if one_in(3)
  play 60, amp: 0.3, release: 2 if one_in(4)
  sleep 1.5
end
use_random_seed 857142
5.times do
  play rrand(50, 100)
  sleep 0.5
end

play choose([60, 65, 72])

use_random_seed 714285
5.times do
  play rrand(50, 100)
  sleep 0.5
end