# Welcome to Sonic Pi v2.5


in_thread(name: :bass) do
  loop do
    use_synth :prophet
    play chord(:e2, :m7, ).choose, release: 0.6
    sleep 0.2
  end
end

in_thread(name: :drums) do
  loop do
    sample :elec_snare
    sleep 1
  end
end
 

in_thread do
  use_synth :tb303
  play 50
end

loop do
  use_synth :fm
  play 40, release: 0.2
  sleep 0.4
end