
use_random_seed 142857
5.times do
  play rrand(50, 100)
  sleep 0.5
end

use_random_seed 857142
5.times do
  play rrand(50, 100)
  sleep 0.5
end

play choose([60, 65, 72])

use_random_seed 714285
5.times do
  play rrand(50, 100)
  sleep 0.5
end