# Welcome to Sonic Pi v2.5

live_loop :dodo do 
  sample :bd_tek, amp: 10
  sample :ambi_choir, rate: -0.2
  sleep 2
  sample :ambi_lunar_land, amp: 10
  sample :sn_dub, amp: 10
  sleep 1
  sample :ambi_choir, rate: 0.4
  sleep 1
  sample :bd_tek, amp: 10
 # sample :ambi_choir, rate: -0.2
  sleep 2
  sample :sn_dub, amp: 10
  sample :ambi_dark_woosh
  sleep 2
end