# Welcome to Sonic Pi v2.5

in_thread do
loop do
  sample :drum_heavy_kick
  sleep 1
end
end

in_thread do
  use_synth :tb303
  play 50
end

loop do
  use_synth :fm
  play 40, release: 0.2
  sleep 0.4
end